app/assets/images/country-4x3/ug.svg

<?xml version="1.0" encoding="UTF-8"?>
<svg xmlns="http://www.w3.org/2000/svg" xmlns:xlink="http://www.w3.org/1999/xlink" width="480pt" height="360pt" viewBox="0 0 480 360" version="1.1">
<g id="surface1">
<path style=" stroke:none;fill-rule:evenodd;fill:rgb(100%,90.588235%,0%);fill-opacity:1;" d="M -30 240.019531 L 510 240.019531 L 510 300.011719 L -30 300.011719 Z M -30 240.019531 "/>
<path style=" stroke:none;fill-rule:evenodd;fill:rgb(0%,0%,0%);fill-opacity:1;" d="M -30 180 L 510 180 L 510 239.992188 L -30 239.992188 Z M -30 180 "/>
<path style=" stroke:none;fill-rule:evenodd;fill:rgb(87.058824%,22.352941%,3.137255%);fill-opacity:1;" d="M -30 120.007812 L 510 120.007812 L 510 180 L -30 180 Z M -30 120.007812 "/>
<path style=" stroke:none;fill-rule:evenodd;fill:rgb(100%,90.588235%,0%);fill-opacity:1;" d="M -30 60.015625 L 510 60.015625 L 510 120.007812 L -30 120.007812 Z M -30 60.015625 "/>
<path style=" stroke:none;fill-rule:evenodd;fill:rgb(0%,0%,0%);fill-opacity:1;" d="M -30 0 L 510 0 L 510 59.992188 L -30 59.992188 Z M -30 0 "/>
<path style="fill-rule:evenodd;fill:rgb(100%,99.215686%,100%);fill-opacity:1;stroke-width:1.333375;stroke-linecap:butt;stroke-linejoin:miter;stroke:rgb(0%,0%,0%);stroke-opacity:1;stroke-miterlimit:4;" d="M 505.002613 232.306049 C 505.002613 295.82628 453.513154 347.307724 390.000938 347.307724 C 326.488722 347.307724 274.999263 295.82628 274.999263 232.306049 C 274.999263 168.793833 326.488722 117.312389 390.000938 117.312389 C 453.513154 117.312389 505.002613 168.793833 505.002613 232.306049 Z M 505.002613 232.306049 " transform="matrix(0.487357,0,0,0.487357,49.930301,66.780107)"/>
<path style="fill-rule:evenodd;fill:rgb(87.058824%,19.215686%,3.137255%);fill-opacity:1;stroke-width:1.333375;stroke-linecap:butt;stroke-linejoin:miter;stroke:rgb(0%,0%,0%);stroke-opacity:1;stroke-miterlimit:4;" d="M 374.706525 141.647182 L 367.2444 127.901164 C 370.121847 125.015702 374.971025 122.787484 382.69765 122.787484 C 382.69765 123.316486 381.912163 137.856006 381.912163 137.856006 Z M 374.706525 141.647182 " transform="matrix(0.487357,0,0,0.487357,47.493516,67.9985)"/>
<path style="fill-rule:evenodd;fill:rgb(100%,90.588235%,0%);fill-opacity:1;stroke-width:1.333375;stroke-linecap:butt;stroke-linejoin:miter;stroke:rgb(0%,0%,0%);stroke-opacity:1;stroke-miterlimit:4;" d="M 381.912163 137.992264 L 382.954136 122.7955 C 382.954136 122.7955 398.415401 121.88177 406.791254 131.964855 C 406.927512 131.836613 398.543643 143.755172 398.543643 143.755172 Z M 381.912163 137.992264 " transform="matrix(0.487357,0,0,0.487357,47.493516,67.9985)"/>
<path style="fill-rule:evenodd;fill:rgb(87.058824%,19.215686%,3.137255%);fill-opacity:1;stroke-width:1.333375;stroke-linecap:butt;stroke-linejoin:miter;stroke:rgb(0%,0%,0%);stroke-opacity:1;stroke-miterlimit:4;" d="M 398.808144 143.618914 L 406.406526 131.836613 C 411.51219 137.206777 413.612165 140.997953 414.397652 146.760861 C 414.525895 146.897119 402.342835 149.774566 402.342835 149.646323 C 402.342835 149.510065 398.944402 143.747157 398.808144 143.618914 Z M 398.808144 143.618914 " transform="matrix(0.487357,0,0,0.487357,47.493516,67.9985)"/>
<path style="fill-rule:evenodd;fill:rgb(0%,0%,0%);fill-opacity:1;stroke-width:1.3333;stroke-linecap:round;stroke-linejoin:round;stroke:rgb(0%,0%,0%);stroke-opacity:1;stroke-miterlimit:4;" d="M 378.513731 338.243299 C 378.513731 338.243299 392.788751 321.868305 420.553303 325.402995 C 416.361369 318.5901 402.871836 319.383602 402.871836 319.383602 C 402.871836 319.383602 398.679901 287.555357 401.950091 285.984384 C 405.228296 284.41341 419.110572 286.112626 419.110572 286.112626 C 420.946047 286.112626 424.087994 281.135205 421.603291 277.993258 C 419.110572 274.851311 411.776691 262.796493 414.790395 260.440033 C 417.8041 258.083573 434.171079 261.754521 434.171079 261.754521 L 387.939572 202.554467 C 387.939572 202.554467 383.226651 180.288322 392.652493 169.547993 C 404.050066 160.114136 402.871836 149.902808 402.479092 150.031051 C 400.908119 139.683465 385.190368 132.221341 374.578282 141.78344 C 368.294388 149.381822 372.486322 155.14473 372.486322 155.14473 C 372.486322 155.14473 355.983085 159.59315 355.325841 162.478612 C 354.676612 165.356058 373.929053 161.94961 373.929053 161.94961 L 372.093579 175.182658 C 372.093579 175.182658 334.630669 209.231105 363.316966 238.702889 C 363.581467 238.566631 364.230696 237.388401 364.230696 237.388401 C 364.230696 237.388401 374.321796 249.835962 384.925868 252.585165 C 394.88071 262.796493 393.966981 261.22552 393.966981 261.22552 C 393.966981 261.22552 395.930698 277.336014 394.095223 280.477961 C 391.61052 279.692474 366.202428 278.778745 362.403237 280.221475 C 358.996789 281.263448 345.9 280.614219 349.170189 301.95862 C 351.662908 296.195712 353.88311 291.090048 353.88311 291.090048 C 353.88311 291.090048 353.490367 298.816672 356.640329 301.565876 C 356.111328 293.446508 359.646018 287.9481 359.646018 287.9481 C 359.646018 287.9481 360.303262 296.852956 362.266979 298.159428 C 364.230696 299.473916 364.230696 283.756166 375.107283 285.062639 C 385.975855 286.377127 393.830723 285.984384 393.830723 285.984384 C 393.830723 285.984384 397.501671 316.762641 396.323441 319.640087 C 388.460558 317.804613 369.737118 320.425574 368.558888 325.14651 C 379.555703 324.489266 384.669382 325.795738 384.669382 325.795738 C 384.669382 325.795738 375.756512 333.658621 378.513731 338.243299 Z M 378.513731 338.243299 " transform="matrix(0.487357,0,0,0.487357,47.493516,67.9985)"/>
<path style="fill-rule:evenodd;fill:rgb(61.176471%,65.098039%,61.176471%);fill-opacity:1;stroke-width:1.3333;stroke-linecap:round;stroke-linejoin:round;stroke:rgb(61.176471%,65.098039%,61.176471%);stroke-opacity:1;stroke-miterlimit:4;" d="M 382.922075 170.301419 C 382.922075 170.301419 355.662478 200.34228 367.420734 223.329791 C 368.045917 220.123722 367.773401 218.111915 368.166145 218.240157 C 367.516916 217.847414 371.548547 221.005391 371.243971 220.396238 C 371.324122 218.729083 370.009634 215.170347 370.009634 215.170347 C 371.243971 215.474923 372.470292 215.787515 373.704628 216.092091 C 372.983263 214.761573 372.269912 213.431055 371.548547 212.092521 C 373.287839 212.300915 375.035147 212.501295 376.774439 212.709689 C 376.774439 212.709689 374.930949 207.796389 375.548117 207.796389 C 376.15727 207.796389 379.844249 208.100966 379.844249 208.100966 C 372.093579 194.186629 379.41143 182.636767 382.922075 170.301419 Z M 382.922075 170.301419 " transform="matrix(0.487357,0,0,0.487357,47.493516,67.9985)"/>
<path style="fill-rule:evenodd;fill:rgb(61.176471%,65.098039%,61.176471%);fill-opacity:1;stroke-width:1.333375;stroke-linecap:butt;stroke-linejoin:miter;stroke:rgb(61.176471%,65.098039%,61.176471%);stroke-opacity:1;stroke-miterlimit:4;" d="M 392.387992 144.532644 C 392.387992 144.532644 393.830723 154.88023 388.196057 157.885919 C 387.282328 158.543163 383.747638 159.721393 384.268624 161.821368 C 384.925868 164.698814 386.496841 164.177828 388.725059 163.648827 C 394.61621 162.606855 401.429105 150.031051 392.387992 144.532644 Z M 392.387992 144.532644 " transform="matrix(0.487357,0,0,0.487357,47.493516,67.9985)"/>
<path style=" stroke:none;fill-rule:evenodd;fill:rgb(100%,100%,100%);fill-opacity:1;" d="M 233.816406 142.777344 C 233.816406 143.378906 233.328125 143.863281 232.730469 143.863281 C 232.128906 143.863281 231.644531 143.378906 231.644531 142.777344 C 231.644531 142.179688 232.128906 141.695312 232.730469 141.695312 C 233.328125 141.695312 233.816406 142.179688 233.816406 142.777344 Z M 233.816406 142.777344 "/>
<path style="fill-rule:evenodd;fill:rgb(87.058824%,19.215686%,3.137255%);fill-opacity:1;stroke-width:1.333375;stroke-linecap:butt;stroke-linejoin:miter;stroke:rgb(0%,0%,0%);stroke-opacity:1;stroke-miterlimit:4;" d="M 373.528294 162.077853 C 372.085564 163.256083 364.495197 171.118966 371.957321 173.996413 C 379.683946 171.904453 377.591986 170.461722 379.291202 168.762506 C 379.339293 165.227815 375.451935 164.306071 373.528294 162.077853 Z M 373.528294 162.077853 " transform="matrix(0.487357,0,0,0.487357,47.493516,67.9985)"/>
<path style="fill-rule:evenodd;fill:rgb(61.176471%,65.098039%,61.176471%);fill-opacity:1;stroke-width:1.3333;stroke-linecap:round;stroke-linejoin:round;stroke:rgb(61.176471%,65.098039%,61.176471%);stroke-opacity:1;stroke-miterlimit:4;" d="M 390.031532 236.346429 C 389.638788 238.05366 387.931557 244.337554 390.288017 249.186733 C 396.844427 246.437529 399.850116 247.223016 402.078334 248.657732 C 396.708169 244.337554 394.61621 242.50208 390.031532 236.346429 Z M 390.031532 236.346429 " transform="matrix(0.487357,0,0,0.487357,47.493516,67.9985)"/>
<path style="fill-rule:evenodd;fill:rgb(100%,100%,100%);fill-opacity:1;stroke-width:1.3333;stroke-linecap:round;stroke-linejoin:round;stroke:rgb(100%,100%,100%);stroke-opacity:1;stroke-miterlimit:4;" d="M 401.300862 266.082714 L 401.693606 280.750477 C 401.693606 280.750477 406.79927 281.664206 409.15573 280.750477 C 411.51219 279.828732 409.027487 270.531134 401.300862 266.082714 Z M 401.300862 266.082714 " transform="matrix(0.487357,0,0,0.487357,47.493516,67.9985)"/>
<path style="fill-rule:evenodd;fill:rgb(61.176471%,65.098039%,61.176471%);fill-opacity:1;stroke-width:1.333375;stroke-linecap:butt;stroke-linejoin:miter;stroke:rgb(0%,0%,0%);stroke-opacity:1;stroke-miterlimit:4;" d="M 438.363014 267.910173 C 438.363014 267.910173 428.929157 245.123041 404.827538 239.360133 C 380.733933 233.597225 383.87588 207.924632 385.839597 206.353658 C 386.889585 204.125441 387.675071 200.718993 394.61621 203.997198 C 401.557348 207.267388 433.513835 223.377882 438.098513 224.163369 C 442.683191 224.948855 438.755757 268.431159 438.363014 267.910173 Z M 438.363014 267.910173 " transform="matrix(0.487357,0,0,0.487357,47.493516,67.9985)"/>
<path style="fill-rule:evenodd;fill:rgb(87.058824%,19.215686%,3.137255%);fill-opacity:1;stroke-width:1.3333;stroke-linecap:butt;stroke-linejoin:round;stroke:rgb(0%,0%,0%);stroke-opacity:1;stroke-miterlimit:4;" d="M 415.439624 239.23189 C 415.046881 239.488376 447.660612 258.484331 437.834012 274.851311 C 447.139626 268.695659 444.125922 257.95533 444.125922 257.95533 C 444.125922 257.95533 451.716289 277.736772 433.249334 287.427114 C 435.213051 289.134346 436.527539 288.733587 436.527539 288.733587 L 433.385592 291.883549 C 433.385592 291.883549 431.942861 294.24001 444.382407 288.212601 C 440.975959 290.961805 440.719474 292.925522 440.719474 292.925522 C 440.719474 292.925522 441.633203 295.546483 449.752572 288.477102 C 443.204177 295.546483 441.761446 299.217431 441.761446 299.081173 C 459.442914 297.5102 497.955811 240.017377 429.586401 222.985139 C 433.249334 226.78433 432.728348 226.263344 432.728348 226.263344 Z M 415.439624 239.23189 " transform="matrix(0.487357,0,0,0.487357,47.493516,67.9985)"/>
<path style="fill-rule:evenodd;fill:rgb(100%,100%,100%);fill-opacity:1;stroke-width:1.3333;stroke-linecap:round;stroke-linejoin:round;stroke:rgb(0%,0%,0%);stroke-opacity:1;stroke-miterlimit:4;" d="M 416.882355 233.597225 C 421.330775 236.739172 422.901748 237.78916 423.43075 239.360133 C 419.367058 238.446404 415.704125 238.710904 415.704125 238.710904 C 415.704125 238.710904 406.927512 230.327035 405.356539 229.669791 C 404.178309 229.669791 397.365413 225.349614 397.365413 225.349614 C 393.958966 223.642383 390.817018 211.860081 403.392822 215.266529 C 416.353354 221.42218 418.188828 221.943166 418.188828 221.943166 C 423.342583 223.562231 428.488323 225.17328 433.642078 226.792345 C 436.615706 230.110626 439.58132 233.428907 442.546933 236.747187 C 442.546933 236.747187 426.70094 228.884304 424.737223 228.756062 C 429.0574 232.290752 431.550118 237.139931 431.550118 237.139931 C 426.524606 235.6972 422.164353 234.382712 416.882355 233.597225 Z M 416.882355 233.597225 " transform="matrix(0.487357,0,0,0.487357,47.493516,67.9985)"/>
<path style="fill:none;stroke-width:1.3333;stroke-linecap:round;stroke-linejoin:miter;stroke:rgb(100%,100%,100%);stroke-opacity:1;stroke-miterlimit:4;" d="M 355.197598 163.256083 C 355.197598 163.256083 370.394362 159.59315 372.229837 160.114136 " transform="matrix(0.487357,0,0,0.487357,47.493516,67.9985)"/>
<path style=" stroke:none;fill-rule:evenodd;fill:rgb(87.058824%,22.352941%,3.137255%);fill-opacity:1;" d="M -30 300.007812 L 510 300.007812 L 510 360 L -30 360 Z M -30 300.007812 "/>
</g>
</svg>

<?xml version="1.0" encoding="UTF-8" standalone="no"?>
<!-- Created with Sodipodi ("http://www.sodipodi.com/") -->
<svg id="svg548" xmlns:rdf="http://www.w3.org/1999/02/22-rdf-syntax-ns#" xmlns="http://www.w3.org/2000/svg" height="480" width="640" version="1.1" xmlns:cc="http://creativecommons.org/ns#" xmlns:dc="http://purl.org/dc/elements/1.1/">
 <metadata id="metadata4201">
  <rdf:RDF>
   <cc:Work rdf:about="">
    <dc:format>image/svg+xml</dc:format>
    <dc:type rdf:resource="http://purl.org/dc/dcmitype/StillImage"/>
   </cc:Work>
  </rdf:RDF>
 </metadata>
 <defs id="defs550">
  <clipPath id="clipPath4987" clipPathUnits="userSpaceOnUse">
   <rect id="rect4989" fill-opacity="0.67" height="512" width="682.67" y=".000022409" x="-85.333"/>
  </clipPath>
 </defs>
 <g id="flag" clip-path="url(#clipPath4987)" transform="matrix(.93750 0 0 .93750 80 -.000021009)">
  <rect id="rect585" fill-rule="evenodd" height="85.321" width="768" y="341.36" x="-128" stroke-width="1pt" fill="#ffe700"/>
  <rect id="rect586" fill-rule="evenodd" height="85.321" width="768" y="256" x="-128" stroke-width="1pt"/>
  <rect id="rect587" fill-rule="evenodd" height="85.321" width="768" y="170.68" x="-128" stroke-width="1pt" fill="#de3908"/>
  <rect id="rect588" fill-rule="evenodd" height="85.321" width="768" y="85.358" x="-128" stroke-width="1pt" fill="#ffe700"/>
  <rect id="rect589" fill-rule="evenodd" height="85.321" width="768" y=".000021848" x="-128" stroke-width="1pt"/>
  <g id="g568" transform="matrix(.69313 0 0 .69313 -17.787 96.709)">
   <path id="path567" d="m505 232.31c0 63.513-51.487 115-115 115s-115-51.487-115-115 51.487-115 115-115 115 51.487 115 115z" fill-rule="evenodd" transform="translate(5 -2.5)" stroke="#000" stroke-width="1.0667pt" fill="#fffdff"/>
   <path id="path556" d="m374.71 141.65-7.466-13.752c2.881-2.881 7.728-5.108 15.455-5.108 0 0.524-0.786 15.062-0.786 15.062l-7.203 3.798z" fill-rule="evenodd" stroke="#000" stroke-width="1.0667pt" fill="#de3108"/>
   <path id="path557" d="m381.91 137.99 1.048-15.193s15.455-0.916 23.837 9.168c0.131-0.131-8.251 11.787-8.251 11.787l-16.634-5.762z" fill-rule="evenodd" stroke="#000" stroke-width="1.0667pt" fill="#ffe700"/>
   <path id="path558" d="m398.81 143.62 7.596-11.787c5.108 5.37 7.203 9.168 7.989 14.931 0.131 0.131-12.049 3.012-12.049 2.881s-3.405-5.894-3.536-6.025z" fill-rule="evenodd" stroke="#000" stroke-width="1.0667pt" fill="#de3108"/>
   <path id="path565" stroke-linejoin="round" d="m378.51 338.24s14.276-16.372 42.042-12.835c-4.191-6.811-17.681-6.025-17.681-6.025s-4.191-31.826-0.917-33.398 17.157 0.131 17.157 0.131c1.833 0 4.977-4.977 2.489-8.12-2.489-3.144-9.823-15.193-6.811-17.551 3.013-2.357 19.384 1.31 19.384 1.31l-46.233-59.199s-4.715-22.265 4.715-33.005c11.395-9.43 10.216-19.646 9.823-19.515-1.572-10.347-17.288-17.813-27.897-8.251-6.287 7.596-2.096 13.359-2.096 13.359s-16.502 4.453-17.157 7.334c-0.655 2.882 18.598-0.523 18.598-0.523l-1.834 13.228s-37.458 34.052-8.775 63.521c0.262-0.131 0.917-1.31 0.917-1.31s10.085 12.443 20.693 15.193c9.954 10.216 9.038 8.644 9.038 8.644s1.964 16.11 0.131 19.253c-2.489-0.786-27.897-1.702-31.696-0.262-3.405 1.048-16.502 0.393-13.228 21.742 2.488-5.763 4.715-10.871 4.715-10.871s-0.393 7.727 2.751 10.478c-0.524-8.121 3.012-13.621 3.012-13.621s0.655 8.906 2.619 10.215c1.965 1.31 1.965-14.407 12.836-13.097 10.87 1.31 18.729 0.917 18.729 0.917s3.667 30.778 2.488 33.66c-7.859-1.834-26.587 0.786-27.766 5.501 11.001-0.655 16.11 0.654 16.11 0.654s-8.906 7.859-6.156 12.443z" fill-rule="evenodd" stroke="#000" stroke-linecap="round" stroke-width="1.3333"/>
   <path id="path552" stroke-linejoin="round" d="m382.92 170.3s-27.256 30.042-15.497 53.031c0.626-3.206 0.353-5.22 0.746-5.089-0.655-0.393 3.38 2.766 3.073 2.151 0.086-1.662-1.229-5.224-1.229-5.224 1.229 0.307 2.459 0.615 3.688 0.922-0.717-1.332-1.435-2.663-2.152-3.995 1.742 0.205 3.483 0.409 5.225 0.614 0 0-1.844-4.917-1.229-4.917 0.614 0 4.302 0.307 4.302 0.307-7.751-13.91-0.439-25.462 3.073-37.8z" fill-rule="evenodd" stroke="#9ca69c" stroke-linecap="round" stroke-width="1.3333" fill="#9ca69c"/>
   <path id="path554" d="m392.39 144.53s1.441 10.347-4.191 13.359c-0.917 0.655-4.453 1.834-3.929 3.93 0.655 2.881 2.226 2.357 4.453 1.833 5.893-1.048 12.704-13.621 3.667-19.122z" fill-rule="evenodd" stroke="#9ca69c" stroke-width="1.0667pt" fill="#9ca69c"/>
   <path id="path555" d="m382.31 153.44c0 1.2297-0.99685 2.2265-2.2265 2.2265-1.2297 0-2.2265-0.99685-2.2265-2.2265 0-1.2297 0.99686-2.2265 2.2265-2.2265 1.2297 0 2.2265 0.99685 2.2265 2.2265z" fill-rule="evenodd" fill="#fff"/>
   <path id="path559" d="m373.53 162.08c-1.441 1.179-9.037 9.038-1.572 11.919 7.728-2.096 5.632-3.536 7.335-5.239 0.044-3.536-3.842-4.453-5.763-6.68z" fill-rule="evenodd" stroke="#000" stroke-width="1.0667pt" fill="#de3108"/>
   <path id="path560" stroke-linejoin="round" d="m390.03 236.35c-0.393 1.703-2.095 7.989 0.262 12.835 6.549-2.75 9.561-1.965 11.788-0.524-5.369-4.322-7.465-6.156-12.05-12.311z" fill-rule="evenodd" stroke="#9ca69c" stroke-linecap="round" stroke-width="1.3333" fill="#9ca69c"/>
   <path id="path561" stroke-linejoin="round" d="m401.3 266.08 0.393 14.669s5.108 0.917 7.465 0c2.358-0.917-0.131-10.216-7.858-14.669z" fill-rule="evenodd" stroke="#fff" stroke-linecap="round" stroke-width="1.3333" fill="#fff"/>
   <path id="path564" d="m438.36 267.91s-9.43-22.789-33.529-28.552-20.956-31.433-18.991-33.005c1.048-2.227 1.834-5.632 8.775-2.357 6.942 3.274 38.899 19.383 43.483 20.169s0.655 44.269 0.262 43.745z" fill-rule="evenodd" stroke="#000" stroke-width="1.0667pt" fill="#9ca69c"/>
   <path id="path563" stroke-linejoin="round" d="m415.44 239.23c-0.393 0.262 32.219 19.252 22.396 35.624 9.3-6.156 6.287-16.895 6.287-16.895s7.596 19.777-10.871 29.469c1.965 1.703 3.275 1.309 3.275 1.309l-3.144 3.144s-1.441 2.357 11.002-3.668c-3.406 2.751-3.667 4.715-3.667 4.715s0.916 2.62 9.037-4.453c-6.549 7.073-7.99 10.74-7.99 10.609 17.681-1.572 56.187-59.068-12.18-76.095 3.668 3.799 3.143 3.275 3.143 3.275l-17.288 12.966z" fill-rule="evenodd" stroke="#000" stroke-width="1.3333" fill="#de3108"/>
   <path id="path562" stroke-linejoin="round" d="m416.88 233.6c4.453 3.143 6.024 4.191 6.548 5.763-4.06-0.916-7.727-0.655-7.727-0.655s-8.775-8.382-10.347-9.037c-1.179 0-7.989-4.322-7.989-4.322-3.405-1.703-6.548-13.49 6.025-10.085 12.965 6.155 14.799 6.68 14.799 6.68 5.152 1.615 10.303 3.231 15.455 4.846 2.969 3.318 5.937 6.636 8.906 9.954 0 0-15.847-7.859-17.812-7.99 4.322 3.536 6.811 8.382 6.811 8.382-5.021-1.441-9.386-2.75-14.669-3.536z" fill-rule="evenodd" stroke="#000" stroke-linecap="round" stroke-width="1.3333" fill="#fff"/>
   <path id="path566" d="m355.2 163.26s15.193-3.667 17.026-3.143" stroke="#fff" stroke-linecap="round" stroke-width="1.3333" fill="none"/>
  </g>
  <rect id="rect584" fill-rule="evenodd" height="85.321" width="768" y="426.68" x="-128" stroke-width="1pt" fill="#de3908"/>
 </g>
</svg>
